X: 2
T: The Fairy
R: slip jig
M: 9/8
L: 1/8
K: Dmix
|: A2 G Add Add | ABA AFA fAg | A2 G Add Add | cAG cAG FED :|||: ~a3 fab afd | ~a3 faa baf | ~a3 baf afd | cAG cAG FED :||


Tune 2743	Setting 28802

